logo/logo_hitam.svg

<?xml version="1.0" encoding="UTF-8"?>
<!DOCTYPE svg PUBLIC "-//W3C//DTD SVG 1.1//EN" "http://www.w3.org/Graphics/SVG/1.1/DTD/svg11.dtd">
<svg xmlns="http://www.w3.org/2000/svg" version="1.1" width="1280px" height="154px" style="shape-rendering:geometricPrecision; text-rendering:geometricPrecision; image-rendering:optimizeQuality; fill-rule:evenodd; clip-rule:evenodd" xmlns:xlink="http://www.w3.org/1999/xlink">
<g><path style="opacity:1" fill="#0c0c0b" d="M 331.5,28.5 C 347.527,26.4073 361.694,30.4073 374,40.5C 378.132,45.4329 380.632,51.0995 381.5,57.5C 372.161,57.6665 362.827,57.4998 353.5,57C 346.85,51.2407 339.517,50.2407 331.5,54C 329.749,57.9433 331.082,60.2766 335.5,61C 346.817,61.9408 357.817,64.2741 368.5,68C 377.232,72.0665 382.065,78.8999 383,88.5C 385.323,103.686 379.823,114.852 366.5,122C 348.171,128.788 330.504,127.454 313.5,118C 305.629,112.094 300.963,104.261 299.5,94.5C 309.172,94.3335 318.839,94.5002 328.5,95C 332.226,100.279 337.393,102.779 344,102.5C 349.387,103.221 353.22,101.221 355.5,96.5C 354.34,93.245 352.007,91.4116 348.5,91C 335.666,90.4235 323.666,87.0901 312.5,81C 303.333,72.8263 300.166,62.6596 303,50.5C 304.54,43.9678 308.04,38.8011 313.5,35C 319.301,31.9029 325.301,29.7363 331.5,28.5 Z"/></g>
<g><path style="opacity:1" fill="#0c0c0b" d="M 239.5,28.5 C 271.868,29.0343 288.535,45.5343 289.5,78C 288.393,107.439 273.226,123.605 244,126.5C 213.825,123.32 198.659,106.487 198.5,76C 199.637,49.0476 213.303,33.2142 239.5,28.5 Z M 241.5,54.5 C 255.302,55.6914 261.969,63.358 261.5,77.5C 262.205,90.2795 256.372,97.9462 244,100.5C 231.932,97.7368 226.099,90.0702 226.5,77.5C 225.797,65.8638 230.797,58.1971 241.5,54.5 Z"/></g>
<g><path style="opacity:1" fill="#0c0c0b" d="M 11.5,30.5 C 21.5222,30.1681 31.5222,30.5015 41.5,31.5C 51.5812,45.9943 61.4145,60.661 71,75.5C 71.4999,60.5037 71.6666,45.5037 71.5,30.5C 79.8333,30.5 88.1667,30.5 96.5,30.5C 96.5,61.8333 96.5,93.1667 96.5,124.5C 88.8045,124.831 81.1378,124.497 73.5,123.5C 61.6667,106.5 49.8333,89.5 38,72.5C 37.5001,89.8301 37.3334,107.163 37.5,124.5C 28.8333,124.5 20.1667,124.5 11.5,124.5C 11.5,93.1667 11.5,61.8333 11.5,30.5 Z"/></g>
<g><path style="opacity:1" fill="#0c0c0b" d="M 114.5,30.5 C 139.167,30.5 163.833,30.5 188.5,30.5C 188.5,38.5 188.5,46.5 188.5,54.5C 172.833,54.5 157.167,54.5 141.5,54.5C 141.5,57.5 141.5,60.5 141.5,63.5C 150.833,63.5 160.167,63.5 169.5,63.5C 169.5,71.5 169.5,79.5 169.5,87.5C 160.167,87.5 150.833,87.5 141.5,87.5C 141.5,91.5 141.5,95.5 141.5,99.5C 158.833,99.5 176.167,99.5 193.5,99.5C 193.5,107.833 193.5,116.167 193.5,124.5C 167.167,124.5 140.833,124.5 114.5,124.5C 114.5,93.1667 114.5,61.8333 114.5,30.5 Z"/></g>
<g><path style="opacity:1" fill="#0c0c0c" d="M 536.5,33.5 C 546.839,33.3335 557.172,33.5002 567.5,34C 577.457,48.7475 587.291,63.5808 597,78.5C 597.5,63.5037 597.667,48.5037 597.5,33.5C 605.833,33.5 614.167,33.5 622.5,33.5C 622.5,64.8333 622.5,96.1667 622.5,127.5C 614.804,127.831 607.138,127.497 599.5,126.5C 587.667,109.5 575.833,92.5 564,75.5C 563.5,92.8301 563.333,110.163 563.5,127.5C 554.5,127.5 545.5,127.5 536.5,127.5C 536.5,96.1667 536.5,64.8333 536.5,33.5 Z"/></g>
<g><path style="opacity:1" fill="#0c0c0b" d="M 634.5,33.5 C 663.167,33.5 691.833,33.5 720.5,33.5C 720.5,41.8333 720.5,50.1667 720.5,58.5C 710.833,58.5 701.167,58.5 691.5,58.5C 691.5,81.5 691.5,104.5 691.5,127.5C 682.5,127.5 673.5,127.5 664.5,127.5C 664.5,104.5 664.5,81.5 664.5,58.5C 654.5,58.5 644.5,58.5 634.5,58.5C 634.5,50.1667 634.5,41.8333 634.5,33.5 Z"/></g>
<g><path style="opacity:1" fill="#0c0c0b" d="M 750.5,33.5 C 760.855,33.1681 771.188,33.5014 781.5,34.5C 793.238,65.382 804.571,96.382 815.5,127.5C 805.81,127.832 796.144,127.498 786.5,126.5C 785.167,122.833 783.833,119.167 782.5,115.5C 771.181,114.334 759.848,114.168 748.5,115C 746.665,119.004 745.332,123.17 744.5,127.5C 735.5,127.5 726.5,127.5 717.5,127.5C 717.605,123.681 718.438,120.014 720,116.5C 730.469,88.925 740.636,61.2584 750.5,33.5 Z M 764.5,67.5 C 765.79,68.0577 766.623,69.0577 767,70.5C 769.068,76.8706 771.235,83.204 773.5,89.5C 768.208,90.4948 762.875,90.8282 757.5,90.5C 759.631,82.7738 761.964,75.1072 764.5,67.5 Z"/></g>
<g><path style="opacity:1" fill="#0c0c0b" d="M 824.5,33.5 C 844.169,33.3334 863.836,33.5 883.5,34C 896.014,35.5161 903.847,42.3494 907,54.5C 910.634,69.6912 906.467,82.0245 894.5,91.5C 900.134,101.63 905.967,111.63 912,121.5C 913.128,123.345 913.628,125.345 913.5,127.5C 903.81,127.832 894.144,127.498 884.5,126.5C 878.833,116.5 873.167,106.5 867.5,96.5C 862.208,95.5052 856.875,95.1718 851.5,95.5C 851.5,106.167 851.5,116.833 851.5,127.5C 842.5,127.5 833.5,127.5 824.5,127.5C 824.5,96.1667 824.5,64.8333 824.5,33.5 Z M 851.5,57.5 C 859.893,57.1696 868.227,57.6696 876.5,59C 881.709,62.4716 881.709,66.1383 876.5,70C 868.227,71.3304 859.893,71.8304 851.5,71.5C 851.5,66.8333 851.5,62.1667 851.5,57.5 Z"/></g>
<g><path style="opacity:1" fill="#0c0c0b" d="M 948.5,33.5 C 959.082,33.1801 969.582,33.5134 980,34.5C 991.675,65.3621 1002.84,96.3621 1013.5,127.5C 1003.81,127.832 994.144,127.498 984.5,126.5C 983.167,122.833 981.833,119.167 980.5,115.5C 969.167,114.167 957.833,114.167 946.5,115.5C 944.562,119.314 943.229,123.314 942.5,127.5C 933.5,127.5 924.5,127.5 915.5,127.5C 915.421,124.729 915.921,122.063 917,119.5C 927.802,90.9249 938.302,62.2582 948.5,33.5 Z M 962.5,67.5 C 963.497,67.4701 964.164,67.9701 964.5,69C 966.735,75.8706 969.068,82.7039 971.5,89.5C 966.208,90.4948 960.875,90.8282 955.5,90.5C 957.635,82.7623 959.968,75.0956 962.5,67.5 Z"/></g>
<g><path style="opacity:1" fill="#0c0c0b" d="M 423.5,34.5 C 427.167,34.5 430.833,34.5 434.5,34.5C 424.51,64.9683 414.01,95.3017 403,125.5C 399.164,127.389 394.997,128.055 390.5,127.5C 401.217,96.399 412.217,65.399 423.5,34.5 Z"/></g>
<g><path style="opacity:1" fill="#0c0c0b" d="M 457.5,34.5 C 461.167,34.5 464.833,34.5 468.5,34.5C 458.234,65.6323 447.567,96.6323 436.5,127.5C 432.5,127.5 428.5,127.5 424.5,127.5C 434.907,96.2797 445.907,65.2797 457.5,34.5 Z"/></g>
<g><path style="opacity:1" fill="#0c0c0b" d="M 473.5,34.5 C 478.214,34.1734 482.88,34.5067 487.5,35.5C 499.742,65.9777 511.409,96.6444 522.5,127.5C 517.456,127.827 512.456,127.494 507.5,126.5C 496.765,98.4607 485.931,70.4607 475,42.5C 473.921,39.9373 473.421,37.2706 473.5,34.5 Z"/></g>
<g><path style="opacity:1" fill="#0c0c0b" d="M 1109.5,41.5 C 1128.77,38.2049 1140.94,45.8715 1146,64.5C 1148,77.8333 1148,91.1667 1146,104.5C 1140.95,123.286 1128.78,130.786 1109.5,127C 1100.76,124.596 1094.93,119.096 1092,110.5C 1090.59,106.943 1089.59,103.276 1089,99.5C 1088.33,89.8333 1088.33,80.1667 1089,70.5C 1089.98,56.491 1096.81,46.8244 1109.5,41.5 Z M 1113.5,57.5 C 1122.98,56.4626 1128.14,60.7959 1129,70.5C 1129.67,80.1667 1129.67,89.8333 1129,99.5C 1127.69,108.832 1122.53,112.665 1113.5,111C 1109.91,107.984 1107.74,104.151 1107,99.5C 1105.29,87.483 1105.95,75.483 1109,63.5C 1110.33,61.34 1111.83,59.34 1113.5,57.5 Z"/></g>
<g><path style="opacity:1" fill="#0c0c0b" d="M 1182.5,41.5 C 1188.84,41.3338 1195.18,41.5005 1201.5,42C 1205.39,42.7394 1209.05,44.0728 1212.5,46C 1213.08,46.8926 1213.41,47.8926 1213.5,49C 1212.26,53.121 1211.26,57.2876 1210.5,61.5C 1206.68,60.926 1203.01,59.7594 1199.5,58C 1180.29,56.0447 1171.29,64.878 1172.5,84.5C 1171.56,93.9279 1174.23,102.095 1180.5,109C 1184.16,110.805 1187.99,111.972 1192,112.5C 1198.31,111.342 1204.47,109.675 1210.5,107.5C 1211.88,112.456 1212.72,117.456 1213,122.5C 1206.2,126.432 1198.86,128.099 1191,127.5C 1170.57,127.745 1158.57,117.745 1155,97.5C 1154.33,89.1667 1154.33,80.8333 1155,72.5C 1157.76,56.251 1166.93,45.9177 1182.5,41.5 Z"/></g>
<g><path style="opacity:1" fill="#0c0c0b" d="M 1240.5,41.5 C 1251.1,40.661 1261.43,41.8277 1271.5,45C 1272.58,45.6739 1273.25,46.6739 1273.5,48C 1272.71,52.5857 1270.71,56.419 1267.5,59.5C 1260.06,56.7035 1252.4,55.8702 1244.5,57C 1238.24,61.1666 1237.91,65.8332 1243.5,71C 1252.44,74.4692 1261.1,78.4692 1269.5,83C 1272.88,86.2692 1275.38,90.1026 1277,94.5C 1281.24,111.551 1275.07,122.385 1258.5,127C 1246.91,128.38 1235.58,127.38 1224.5,124C 1222.24,123.547 1220.91,122.214 1220.5,120C 1221.46,116.109 1222.63,112.275 1224,108.5C 1224.52,107.484 1225.35,106.818 1226.5,106.5C 1233.05,110.127 1240.05,112.127 1247.5,112.5C 1252.31,112.18 1256.14,110.18 1259,106.5C 1260.57,101.467 1259.07,97.6333 1254.5,95C 1246.92,91.4721 1239.25,88.1388 1231.5,85C 1221.92,78.2664 1218.75,69.0997 1222,57.5C 1225.61,49.0484 1231.78,43.7151 1240.5,41.5 Z"/></g>
<g><path style="opacity:1" fill="#0c0c0b" d="M 1031.5,42.5 C 1039.84,42.3336 1048.17,42.5003 1056.5,43C 1071.53,46.5166 1080.03,56.0166 1082,71.5C 1087.59,114.41 1069.09,132.41 1026.5,125.5C 1026.5,98.1667 1026.5,70.8333 1026.5,43.5C 1028.41,43.7845 1030.08,43.4511 1031.5,42.5 Z M 1043.5,58.5 C 1053.48,57.0057 1059.98,61.0057 1063,70.5C 1064.53,78.4357 1064.86,86.4357 1064,94.5C 1061.85,105.82 1055.01,111.486 1043.5,111.5C 1043.5,93.8333 1043.5,76.1667 1043.5,58.5 Z"/></g>
</svg>

<svg xmlns="http://www.w3.org/2000/svg" width="1280" height="154" style="shape-rendering:geometricPrecision;text-rendering:geometricPrecision;image-rendering:optimizeQuality;fill-rule:evenodd;clip-rule:evenodd">
  <path style="opacity:1" fill="#0c0c0b" d="M331.5 28.5q24.04-3.14 42.5 12 6.198 7.4 7.5 17-14.009.25-28-.5-9.975-8.64-22-3-2.627 5.915 4 7a133.4 133.4 0 0 1 33 7q13.098 6.1 14.5 20.5 3.485 22.779-16.5 33.5-27.494 10.182-53-4-11.806-8.859-14-23.5 14.508-.25 29 .5 5.59 7.918 15.5 7.5 8.08 1.082 11.5-6-1.74-4.882-7-5.5-19.251-.864-36-10-13.75-12.26-9.5-30.5 2.31-9.798 10.5-15.5 8.702-4.646 18-6.5m-92 0q48.552.801 50 49.5-1.66 44.158-45.5 48.5-45.262-4.77-45.5-50.5 1.705-40.428 41-47.5m2 26q20.703 1.787 20 23 1.058 19.17-17.5 23-18.102-4.145-17.5-23-1.055-17.454 15-23m-230-24a226 226 0 0 1 30 1 1550 1550 0 0 1 29.5 44q.75-22.494.5-45h25v94a133 133 0 0 1-23-1L38 72.5q-.75 25.995-.5 52h-26zm103 0h74v24h-47v9h28v24h-28v12h52v25h-79z"/>
  <path style="opacity:1" fill="#0c0c0c" d="M536.5 33.5q15.508-.25 31 .5A3151 3151 0 0 1 597 78.5q.75-22.494.5-45h25v94a133 133 0 0 1-23-1l-35.5-51q-.75 25.995-.5 52h-27z"/>
  <path style="opacity:1" fill="#0c0c0b" d="M634.5 33.5h86v25h-29v69h-27v-69h-30zm116 0a241 241 0 0 1 31 1 3887 3887 0 0 1 34 93q-14.535.498-29-1l-4-11a193 193 0 0 0-34-.5 54.6 54.6 0 0 0-4 12.5h-27a28.8 28.8 0 0 1 2.5-11 4130 4130 0 0 0 30.5-83m14 34q1.935.837 2.5 3a639 639 0 0 0 6.5 19 65 65 0 0 1-16 1 457 457 0 0 1 7-23m60-34q29.504-.25 59 .5 18.77 2.275 23.5 20.5 5.45 22.787-12.5 37a845 845 0 0 0 17.5 30 10.1 10.1 0 0 1 1.5 6q-14.535.498-29-1l-17-30a65 65 0 0 0-16-1v32h-27zm27 24q12.59-.495 25 1.5 7.813 5.208 0 11a126 126 0 0 1-25 1.5zm97-24q15.873-.48 31.5 1a3107 3107 0 0 1 33.5 93q-14.535.498-29-1l-4-11a145 145 0 0 0-34 0 42.4 42.4 0 0 0-4 12h-27a19 19 0 0 1 1.5-8 4438 4438 0 0 0 31.5-86m14 34q1.496-.045 2 1.5a743 743 0 0 0 7 20.5 65 65 0 0 1-16 1 458 458 0 0 1 7-23m-539-33h11a2938 2938 0 0 1-31.5 91q-5.754 2.833-12.5 2a5401 5401 0 0 1 33-93m34 0h11a3823 3823 0 0 1-32 93h-12a2566 2566 0 0 1 33-93m16 0q7.07-.49 14 1a2669 2669 0 0 1 35 92 57.2 57.2 0 0 1-15-1 12806 12806 0 0 0-32.5-84 19 19 0 0 1-1.5-8m636 7c19.27-3.295 31.44 4.371 36.5 23q3 20 0 40c-5.05 18.786-17.22 26.286-36.5 22.5-8.74-2.404-14.57-7.904-17.5-16.5a51.2 51.2 0 0 1-3-11q-1.005-14.5 0-29c.98-14.009 7.81-23.676 20.5-29m4 16c9.48-1.037 14.64 3.296 15.5 13q1.005 14.5 0 29c-1.31 9.332-6.47 13.165-15.5 11.5-3.59-3.016-5.76-6.849-6.5-11.5-1.71-12.017-1.05-24.017 2-36q1.995-3.24 4.5-6m69-16c6.34-.166 12.68 0 19 .5a36.3 36.3 0 0 1 11 4c.58.893.91 1.893 1 3a113 113 0 0 0-3 12.5 36.5 36.5 0 0 1-11-3.5q-28.815-2.933-27 26.5c-.94 9.428 1.73 17.595 8 24.5a36.6 36.6 0 0 0 11.5 3.5 116 116 0 0 0 18.5-5c1.38 4.956 2.22 9.956 2.5 15-6.8 3.932-14.14 5.599-22 5q-30.645.368-36-30-1.005-12.5 0-25c2.76-16.249 11.93-26.582 27.5-31m58 0c10.6-.839 20.93.328 31 3.5 1.08.674 1.75 1.674 2 3q-1.185 6.879-6 11.5c-7.44-2.797-15.1-3.63-23-2.5-6.26 4.167-6.59 8.833-1 14 8.94 3.47 17.6 7.47 26 12a30.45 30.45 0 0 1 7.5 11.5c4.24 17.051-1.93 27.885-18.5 32.5-11.59 1.38-22.92.38-34-3-2.26-.453-3.59-1.786-4-4 .96-3.891 2.13-7.725 3.5-11.5.52-1.016 1.35-1.682 2.5-2q9.825 5.44 21 6c4.81-.32 8.64-2.32 11.5-6q2.355-7.55-4.5-11.5a494 494 0 0 0-23-10c-9.58-6.734-12.75-15.9-9.5-27.5 3.61-8.452 9.78-13.785 18.5-16m-209 1c8.34-.166 16.67 0 25 .5q22.545 5.276 25.5 28.5 8.385 64.365-55.5 54v-82c1.91.285 3.58-.049 5-1m12 16q14.97-2.241 19.5 12a80.8 80.8 0 0 1 1 24c-2.15 11.32-8.99 16.986-20.5 17z"/>
</svg>
